!!!COM: Josephine Lang
!!!CNT: Deutsch
!!!TXO: Deutsch
!!!OTL: "Die wandernde Wolke"
!!!LYR: Reinhold
!!!OPS: Op. 12
!!!ONM: No. 6
!!!ENC: Alyona Dzerbina, phrasing by LVH
!!!YOR: Josephine Lang: Selected Songs
!!!YOR: Da Capo Press, 1982
!!!ODT: 1843/
!!NB: Vocal melody only encoded.
**kern
*staff1
*clefG2
*k[f#c#]
*M3/4
*MM[Langsam, gehalten]
2.r
=2
2.r
=3
2.r
=4
2.r
=5
4r
4r
8r
{(8a
=6
8.a
16b
8a
8dd
8a
8f#
=7
8.e
16f#
8e
8A
4e)}
=8
2.r
=9
4r
4r
8r
16r
{16a
=10
8.a
16b
8a
8dd
8a
16r
16f#
=11
8.e
16f#
8e
8B
4e}
=12
2.r
=13
4r
4r
8r
{8ccn
=14
8.ffn
16dd
8ccn
8a
8fn
8f#
=15
2g}
8r
{8ccn
=16
8.dd
16ccn
4b-
4a
=17
[2b-
8b-]}
{8b-
=18
8.a
16ccn
4ffn
8r
8a
=19
8.g
16ccn
4ee}
8r
{8g
=20
8g
8g#
(4a
8.cc#)
16b
=21
2a}
{4g
=22
8.f#
16g
8a
8b
8cc#
8dd
=23
4.ee}
{8dd#
8ee
8ff#
=24
2gg
4cc#
=25
4dd}
4r
4r
=26
2.r
=27
2.r
=28
2.r
=29
4r
4r
8r
{8a
=30
8.a
16b
8a
8dd
8a
8f#
=31
8.e
16f#
8e
8A
4e}
=32
2.r
=33
4r
4r
8r
{8a
=34
8.a
16b
8a
8dd
8a
8f#
=35
8.e
16f#
8e
8B
4e}
=36
2.r
=37
4r
4r
8r
{8ccn
=38
8.ffn
16dd
8ccn
8a
8.fn
16f#
=39
2g}
8r
{8cc#
=40
8.dd
16cc#
4b-
4a
=41
2b-}
8r
{8b-
=42
8.a
16cc#
4.ee
8b-
=43
8a
16ccn
16b
4a}
8r
{8g
=44
8.fn
16e
4d
4e
=45
4A}
4r
4r
=46
2.r
=47
2.r
=48
2.r
=49
4r
4r
8r
{8a
=50
8.a
16b
8a
8dd
8a
8f#
=51
8e
8f#
8e
8A
4e}
=52
2.r
=53
4r
4r
8r
{8a
=54
8.a
16b
8a
8dd
8a
8f#
=55
8.e
16f#
8e
8B
4e}
=56
2.r
=57
4r
4r
8r
{8ccn
=58
8.ff#
16dd
8ccn
8a
8fn
8f#
=59
2g}
8r
{8ccn
=60
8.dd
16ccn
4b-
4a
=61
2b-}
8r
{8b-
=62
8.a
16ccn
4ffn
8r
8a
=63
8.a
16dd
4ffn}
8r
{8a
=64
8.a
16g
8.fn
16e
8.d
16d
=65
(2e
eq)}
{(4e
=66
eq)
8g
8g#
4a
8.cc#
16b
=67
2a}
{4g
=68
8f#
8g
8a
8b
8cc#
8dd
=69
(4.ee
8dd#)
8ee
8ff#
=70
2gg
4cc#
=71
2.dd}
=72
2.r
=73
2.r
=74
2.r
=75
2.r
=76
2.r
==
*-
